X:1
T:Edelweiss-Mazurka  FC
T:Hanny Christen. Bd.II  St. Gallen II, GraubÃ¼nden, Tessin. S.289 (mz02049) orig. F,C
T: GraubÃ¼nden. Repertoire von Peter Davoli, Davos/Samedan
T: Ãœberliefert vermutlich durch Joggi Stocker (1889-1956)
O:Switzerland
%%MIDI program 21
R:mazurka
M:3/4
L:1/8
K:F %%MIDI gchordon
"F"A>c d2c2 | A>c g2f2 | "C7"e>ed2c2 | B6 | B>c d2c2 | B>c g2f2 | e>e d2c2 | 
"F"f2f2z2 :: [K:C] "C"e>ga3e | "Dm"g>^f =f3A | "G7"e2d2 BG | "C"e4z2 | EF GA Bc |1 "G7"B>gf4 | 
DE FG AB | "C"c>ag4  :|2 "Dm"BA g3^f | "G7"=f2 GA Bd | "C"c2c2fa || [K:F]   "F"e4ea | d4 c>A | 
"Gm"B4dg | g4ga | "C7"b>ee2e2 | e4 g^g | "F"a>ff2f2 | f4fa | e4ea | 
d4cA | "Gm"B4da | g4ga | "C7"b>ee2g^g | "F"a>ff2AB | "C7"c2d>e g>a | "F"f2f2z2 |] 
% mz02049 (H 071/TN 2049)

